src/scalable/apps/teamviewer.svg

<svg width="512" height="512" enable-background="new" version="1.0" xmlns="http://www.w3.org/2000/svg" xmlns:osb="http://www.openswatchbook.org/uri/2009/osb" xmlns:xlink="http://www.w3.org/1999/xlink">
 <defs>
  <filter id="a" x="-.024" y="-.024" width="1.048" height="1.048" color-interpolation-filters="sRGB">
   <feGaussianBlur stdDeviation="4.48"/>
  </filter>
 </defs>
 <g transform="translate(0,212)">
  <g>
   <g transform="translate(-208,16)">
    <g>
     <rect transform="matrix(0,-1,-1,0,0,0)" x="-254" y="-688" width="448" height="448" rx="36" ry="36" opacity=".2"/>
     <rect transform="matrix(0,-1,-1,0,0,0)" x="-256" y="-688" width="448" height="448" rx="36" ry="36" filter="url(#a)" opacity=".1"/>
     <rect transform="matrix(0,-1,-1,0,0,0)" x="-256" y="-688" width="448" height="448" rx="36" ry="36" filter="url(#a)" opacity=".2"/>
    </g>
    <rect transform="matrix(0,-1,-1,0,0,0)" x="-252" y="-688" width="448" height="448" rx="36" ry="36" fill="#0c7fde"/>
    <path transform="translate(0,-244)" d="m276 48c-19.944 0-36 16.056-36 36v2c0-19.944 16.056-36 36-36h376c19.944 0 36 16.056 36 36v-2c0-19.944-16.056-36-36-36z" fill="#fff" opacity=".2"/>
    <path d="m464-146c-97.202 0-176 78.798-176 176-1e-5 97.202 78.798 176 176 176s176-78.798 176-176c-1e-5 -97.202-78.798-176-176-176zm-48 117.33v34.667h96v-34.667l81.067 58.667-81.067 58.667v-34.667h-96v34.667l-81.067-58.667z" opacity=".2"/>
    <path d="m464-148c-97.202 0-176 78.798-176 176-1e-5 97.202 78.798 176 176 176s176-78.798 176-176c-1e-5 -97.202-78.798-176-176-176zm-48 117.33v34.667h96v-34.667l81.067 58.667-81.067 58.667v-34.667h-96v34.667l-81.067-58.667z" fill="#fff"/>
   </g>
  </g>
 </g>
</svg>

<svg xmlns="http://www.w3.org/2000/svg" width="512" height="512" enable-background="new" version="1.0"><defs><filter id="a" width="1.048" height="1.048" x="-.024" y="-.024" color-interpolation-filters="sRGB"><feGaussianBlur stdDeviation="4.48"/></filter></defs><g transform="translate(-208 228)"><g transform="scale(1 -1)rotate(90)"><rect width="448" height="448" x="-254" y="-688" opacity=".2" rx="36" ry="36"/><rect width="448" height="448" x="-256" y="-688" filter="url(#a)" opacity=".1" rx="36" ry="36"/><rect width="448" height="448" x="-256" y="-688" filter="url(#a)" opacity=".2" rx="36" ry="36"/></g><rect width="448" height="448" x="-252" y="-688" fill="#0c7fde" rx="36" ry="36" transform="scale(1 -1)rotate(90)"/><path fill="#fff" d="M276-196c-19.944 0-36 16.056-36 36v2c0-19.944 16.056-36 36-36h376c19.944 0 36 16.056 36 36v-2c0-19.944-16.056-36-36-36z" opacity=".2"/><path d="M464-146c-97.202 0-176 78.798-176 176s78.798 176 176 176 176-78.798 176-176-78.798-176-176-176M416-28.67V5.997h96V-28.67l81.067 58.667L512 88.664V53.997h-96v34.667l-81.067-58.667z" opacity=".2"/><path fill="#fff" d="M464-148c-97.202 0-176 78.798-176 176s78.798 176 176 176 176-78.798 176-176-78.798-176-176-176M416-30.67V3.997h96V-30.67l81.067 58.667L512 86.664V51.997h-96v34.667l-81.067-58.667z"/></g></svg>
